!!!!SEGMENT: pl-sa--400-a-viii-40--003-002_pugnani-gaetano--trio-in-g-adagio.krn
!!!cenid: 17xx:2027
!!!COM: Pugnani, Gaetano
!!!COM-rismID: pe30002608
!!!CDT: 1731/11/27-1798/07/15
!!!CNT: Italian
!!!OPR: Trio in G
!!!OTL: Adagio
!!!OMV: 002
!!!PDT:
!!!AGN: Secular
!!!SMS-siglum: PL-SA
!!!SMS-shelfmark: 400/A VIII 40
!!!SMS-shelfwork: 003-002 M
!!!SMS-variant:
!!!SMS-altvar:
!!!NIFC-rismSourceID: 1001104661
!!!NIFC-islandoraID:
!!!URL-pdf-islandora:
!!!URL-scan: https://bc.bdsandomierz.pl/dlibra/publication/1703/edition/1671/content @EN{Scan in the Sandomierz Diocese Digital Library} @PL{Skany w portalu Cyfrowa Biblioteka Diecezjalna w Sandomierzu}
!!!ONB-nifc: UWAGA: No 3tio. Części: 1. Allegro, 2. Adagio, 3. Allegro; vl 1 skany 6-7; vl 2 skan 16
!!!OMD: Adagio
!!!AIN: 2 violn
!!!key: B-
**kern	**kern	**dynam	**kern
*part3	*part2	*part2	*part1
*staff3	*staff2	*	*staff1
*I"Baſso.	*I"Violino 2do	*	*I"Violino 1mo
*I'b	*I'vl 2	*	*I'vl 1
*I	*Ivioln	*	*Ivioln
*ICstr	*ICstr	*	*ICstr
*IGcont	*	*	*
*clefF4	*clefG2	*	*clefG2
*k[b-e-]	*k[e-b-]	*	*k[e-b-]
*B-:	*B-:	*	*B-:
*M2/2	*M2/2	*	*M2/2
*met(c|)	*met(c|)	*	*met(c|)
=1	=1	=1	=1
*2\right	*2\right	*2\right	*2\right
!LO:TX:t=P:problem:zgodnie z RISM "b part missing."	!	!	!
1ryy	4r	.	4b-\
.	4B-/	.	4B-/
.	4d/	.	8B-/L
.	.	.	8d/J
.	4B-/	.	8f/L
.	.	.	8b-/J
=2	=2	=2	=2
1ryy	4f/	.	(4b-\
.	4f/	.	4a\)
.	8r	.	2ee-\
.	4cc\	.	.
.	8b-\	.	.
=3	=3	=3	=3
1ryy	4a\	.	16ee-\LL
.	.	.	16dd\
.	.	.	16cc\
.	.	.	16dd\JJ
.	4a\	.	16cc\LL
.	.	.	16b-\
.	.	.	16a\
.	.	.	16b-\JJ
.	4f/	.	(16b-/LL
.	.	.	16a/)
.	.	.	(16a/
.	.	.	16g/JJ)
.	4f/	.	16g/LL
.	.	.	16f/
.	.	.	16f/
.	.	.	16e-/JJ
=4	=4	=4	=4
1ryy	4b-\	.	4d/
.	4B-/	.	4B-/
.	8B-/L	.	4d/
.	8d/	.	.
.	8f/	.	4B-/
.	8b-/J	.	.
=5	=5	=5	=5
1ryy	4b-\	.	4f/
.	4a\	.	4f/
.	[2ee-\	.	8r
.	.	.	4cc\
.	.	.	8b-\
=6	=6	=6	=6
1ryy	16ee-\LL]	.	4a/
.	(16dd\	.	.
.	16cc\	.	.
.	16dd\JJ)	.	.
.	16cc\LL	.	4a/
.	(16b-\	.	.
.	16a\	.	.
.	16b-\JJ)	.	.
.	16b-/LL	.	4f/
.	(16a/	.	.
.	16a/	.	.
.	16g/JJ)	.	.
.	16g/LL	.	4f/
.	(16f/	.	.
.	16f/	.	.
.	16e-/JJ)	.	.
=7	=7	=7	=7
*	*Xtuplet	*	*
!	!LO:TUP:b:problem:klamra łukowa	!	!
1ryy	24d/LL	.	4B-/
.	24e-/	.	.
.	24d/JJ	.	.
!	!LO:TUP:b:problem:klamra łukowa	!	!
.	24f/LL	.	.
.	24g/	.	.
.	24f/JJ	.	.
!	!LO:LB:g=original	!	!
.	24b-\LL	.	4B-/
.	24cc\	.	.
.	24b-\JJ	.	.
!	!LO:TUP:a:problem:klamra łukowa	!	!
.	24dd\LL	.	.
.	24ee-\	.	.
.	24dd\JJ	.	.
.	8.ff\L	.	4d/
.	32ee-\LL	.	.
.	32ff\JJJ	.	.
!	!LO:TUP:a:problem:klamra łukowa	!	!
.	24gg\LL	.	4e-/
.	24ff\	.	.
.	24ee-\	.	.
.	24dd\	.	.
.	24cc\	.	.
.	24b-\JJ	.	.
!	!	!	!LO:LB:g=original
=8	=8	=8	=8
!	!	!	!LO:TX:t=P:problem:mixed beam
1ryy	4a/	.	8f/L
.	.	.	8ff\
.	4f/	.	8ff\
.	.	.	8ff\J
!	!	!	!LO:N:vis=16
.	4c/	.	32een\LLL
!	!	!	!LO:N:vis=16
.	.	.	32ff\
!	!	!	!LO:N:vis=16
.	.	.	32gg\
!	!	!	!LO:N:vis=16
.	.	.	32ff\JJJ
.	.	.	16.ee\LL
.	.	.	32gg\JJk
!	!	!	!LO:TX:t=P:problem:niejednoznaczny zapis ozdobnika [przyjęto mordent górny]:global
.	4r	.	4ggM\
=9	=9	=9	=9
1ryy	8r	.	8ff\L
.	8ff'\L	.	8aa\
.	8ff'\	.	8aa\
.	8ff'\J	.	8aa\J
!	!LO:N:vis=16	!	!LO:N:vis=16
.	32een\LLL	.	(32gg\LLL
!	!LO:N:vis=16	!	!LO:N:vis=16
.	(32ff\	.	32aa\
!	!LO:N:vis=16	!	!LO:N:vis=16
.	32gg\	.	32bb-\
!	!LO:N:vis=16	!	!LO:N:vis=16
.	32ff\JJJ)	.	32aa\JJJ)
.	16.ee\LL	.	16.gg\LL
.	32gg\JJk	.	32bb-\JJk
!	!LO:TX:t=P:problem:niejednoznaczny zapis ozdobnika [przyjęto mordent górny]:global	!	!
.	4ggM\	.	4bb-\
=10	=10	=10	=10
1ryy	8ff\L	.	8aa\L
.	8bb-\J	.	8ddd\J
.	4bb-\	.	4ddd\
!	!	!	!LO:SIC:v:s=8ddd\L
.	8bb-\L	.	8eee-\L
.	16aa\L	.	(16ccc\L
.	16gg\JJ	.	16bb-\JJ)
.	(16gg\LL	.	(16bb-\LL
.	16ff\)	.	16aa\)
.	(16ff\)	.	(16aa\
.	16een\JJ)	.	16gg\JJ)
=11	=11	=11	=11
1ryy	8ff\L	.	8aa\L
.	8b-\J	.	8dd\J
.	4b-\	.	4dd\
.	8.b-/L	.	8dd\L
.	.	.	16cc\L
.	32a/LL	.	16b-\JJ
.	32g/JJJ	.	.
.	16g/LL	.	(16b-\LL
.	16f/	.	16a\)
.	16f/	.	(16a\
.	16en/JJ	.	16g\JJ)
!	!LO:LB:g=original	!	!
=12	=12	=12	=12
1ryy	4f/	.	16a|\LL
.	.	.	(16ff\
.	.	.	16aa\
.	.	.	16ff\JJ)
.	4cc\	.	16een|\LL
.	.	.	(16ee\
.	.	.	16gg\
.	.	.	16ee\JJ)
!	!LO:TX:t=P:problem:mixed beam	!	!
.	16f/LL	.	4ff\
.	(16ff\	.	.
.	16aa\	.	.
.	16ff\JJ)	.	.
.	16een|\LL	.	4cc\
.	(16ee\	.	.
.	16gg\	.	.
.	16ee\JJ)	.	.
=13	=13	=13	=13
1ryy	4ff\	.	8a\L
.	.	.	8ff\
!	!	!LO:DY:B:a:t=p&colon;	!
.	4a\	p	8cc\
.	.	.	8ee-X\J
.	4b-\	.	8dd\L
.	.	.	8bb-\
.	4b-\	.	8aa\
.	.	.	8gg\J
!	!	!	!LO:LB:g=original
=14	=14	=14	=14
1ryy	4cc\	.	4ff\
.	4cc\	.	(32ff\LLL
.	.	.	32een\
.	.	.	32ff\
.	.	.	32gg\JJJ)
.	.	.	8ryy
.	4c/	.	2ggM\
.	4c/	.	.
=15	=15	=15	=15
*	*^	*	*
1ryy	4a/	4f\	.	4.ff\
.	4a/	4f\	.	.
.	.	.	.	8cc\
.	4a/	4f\	.	4.cc\
.	4a/	4f\	.	.
.	.	.	.	16cc#X\LL
.	.	.	.	16dd\JJ
=16	=16	=16	=16	=16
1ryy	4b-/	4f\	.	2dd\
.	4b-/	4f\	.	.
!	!	!LO:SIC:v:s=4f\	!	!
.	4b-/	4g\	.	(16dd\LL
.	.	.	.	16ff\
.	.	.	.	16ff\
.	.	.	.	16bb-\JJ)
!	!	!LO:SIC:v:s=4f\	!	!
.	4b-/	4g\	.	8bb-\L
.	.	.	.	8dd\J
=17	=17	=17	=17	=17
1ryy	4a/	4f\	.	8cc\L
.	.	.	.	8aa\J
.	4a/	4f\	.	4aa\
.	4c/	2ryy	.	(16gg\LL
.	.	.	.	16ff\
.	.	.	.	16een\
.	.	.	.	16dd\JJ)
.	4c/	.	.	8cc\L
.	.	.	.	8b-\J
*	*v	*v	*	*
=18	=18	=18	=18
.	.	.	8qqb-/
1ryy	4f/	.	2a/
.	4f/	.	.
.	2cc\	.	4g/
.	.	.	4g/
=19	=19	=19	=19
1ryy	8cc\L	.	4f#X/
.	16.ff#X\L	.	.
.	32gg\JJk	.	.
.	4aa\	.	4f#/
!	!LO:TX:t=P:problem:mixed beam	!	!
.	16aa\LL	.	4d/
.	16a/	.	.
.	16b-/	.	.
.	16cc/JJ	.	.
.	(16cc\LL	.	4d/
.	16b-\	.	.
.	16b-\	.	.
.	16a\JJ)	.	.
!	!LO:LB:g=original	!	!
=20	=20	=20	=20
1ryy	(8.b-\L	.	4g/
.	32cc\LL	.	.
.	32dd\JJJ)	.	.
.	4g/	.	4G/
.	4g/	.	2b-\
.	4f/	.	.
=21	=21	=21	=21
1ryy	4en/	.	8b-\L
.	.	.	(16.een\L
.	.	.	32ff\JJk
.	4e/	.	4gg\)
!	!	!	!LO:TX:t=P:problem:mixed beam
.	4c/	.	16gg\LL
.	.	.	(16g/
.	.	.	16a/
.	.	.	16b-/JJ)
!	!	!	!LO:LB:g=original
.	4c/	.	16b-/LL
.	.	.	(16a/
.	.	.	16a/
.	.	.	16g/JJ)
=22	=22	=22	=22
1ryy	4f/	.	16a|\LL
.	.	.	(16a\
.	.	.	16b-\
.	.	.	16cc\JJ)
.	4e-X/	.	(16cc\LL
.	.	.	16b-\)
.	.	.	(16b-\
.	.	.	16a\JJ)
.	4d/	.	16b-|\LL
.	.	.	(16b-\
.	.	.	16cc\
.	.	.	16dd\JJ)
.	4B-/	.	(16dd\LL
.	.	.	16cc\)
.	.	.	(16cc\
.	.	.	16b-\JJ)
=23	=23	=23	=23
1ryy	16a|\LL	.	16cc|\LL
.	(16a\	.	(16cc\
.	16b-\	.	16dd\
.	16cc\JJ)	.	16ee-X\JJ)
.	16cc\LL	.	16ee-\LL
.	(16b-\	.	16dd\
.	16b-\	.	16dd\
.	16a\JJ)	.	16cc\JJ
.	8qqcc/	.	8qqee-/
.	4.b-\	.	4.dd\
.	16a\LL	.	(16cc\LL
.	16b-\JJ	.	16dd\JJ)
=24	=24	=24	=24
*	*	*	*^
1ryy	4.a/	.	2cc/	2f\
.	8f/	.	.	.
.	8f/L	.	2r	2ryy
.	8e-/	.	.	.
.	8d/	.	.	.
.	8c/J	.	.	.
*	*	*	*v	*v
=25	=25	=25	=25
1ryy	4B-/	.	4b-/
.	4B-/	.	4B-/
.	4d/	.	8B-'/L
.	.	.	8d'/
.	4B-/	.	8f'/
.	.	.	8b-'/J
=26	=26	=26	=26
1ryy	4ff\	.	4a/
.	4f/	.	4f/
.	8f/L	.	4a/
.	8a/	.	.
.	8cc/	.	4f/
.	8ff/J	.	.
=27	=27	=27	=27
1ryy	8ff\L	.	4gg\
.	16ee-\L	.	.
.	(16dd\JJ	.	.
.	4ee-\)	.	8gg\L
.	.	.	(16ff\L
.	.	.	16ee-\JJ)
!	!LO:LB:g=original	!	!
.	8ee-\L	.	4ff\
.	(16dd\L	.	.
.	16cc\JJ	.	.
.	4dd\)	.	8ff\L
.	.	.	(16ee-\L
.	.	.	16dd\JJ)
=28	=28	=28	=28
1ryy	8dd\L	.	4ee-\
.	16cc\L	.	.
.	16b-\JJ	.	.
.	8cc\L	.	8ee-\L
.	16b-\L	.	16dd\L
.	16a\JJ	.	16cc\JJ
.	2b-M\	.	2ddm\
!	!	!	!LO:LB:g=original
=29	=29	=29	=29
*	*^	*	*
1ryy	4a/	4f\	.	8cc\
.	.	.	.	4ee-\
.	4a/	4f\	.	.
.	.	.	.	4aa\
.	4a/	4f\	.	.
.	.	.	.	8ccc\
*	*	*	*	*Xtuplet
!	!	!	!	!LO:TUP:problem:klamra łukowa
.	4a/	4f\	.	24ccc\LL
.	.	.	.	24bb-\
.	.	.	.	24aa\
.	.	.	.	24gg\
.	.	.	.	24ff\
.	.	.	.	24ee-\JJ
=30	=30	=30	=30	=30
1ryy	4b-/	4f\	.	8dd\
.	.	.	.	4ff\
.	4b-/	4f\	.	.
.	.	.	.	4bb-\
.	4b-/	4f\	.	.
!	!	!	!	!LO:N:vis=8
.	.	.	.	16ddd\
!	!	!	!	!LO:TX:t=P:problem:nadliczbowa 4ddd
!	!	!	!	!LO:N:vis=4
.	.	.	.	16ddd\
!	!	!	!	!LO:TUP:problem:klamra łukowa
.	4b-/	4f\	.	24ddd\LL
.	.	.	.	24ccc\
.	.	.	.	24bb-\
.	.	.	.	24aa\
.	.	.	.	24gg\
.	.	.	.	24ff\JJ
=31	=31	=31	=31	=31
1ryy	4a/	4f\	.	8ee-\
.	.	.	.	4aa\
.	4a/	4f\	.	.
.	.	.	.	4ccc\
.	4a/	4f\	.	.
.	.	.	.	8eee-\
.	4a/	4f\	.	(32eee-\LLL
.	.	.	.	32ddd\
.	.	.	.	32ccc\
.	.	.	.	32bb-\
.	.	.	.	32aa\
.	.	.	.	32gg\
.	.	.	.	32ff\
.	.	.	.	32ee-\JJJ)
*	*v	*v	*	*
=32	=32	=32	=32
1ryy	4b-\	.	8dd\L
.	.	.	8b-\
.	4r	.	8b-\
.	.	.	8b-\J
!	!	!	!LO:N:vis=16
.	4a/	.	32a\LLL
!	!	!	!LO:N:vis=16
.	.	.	32b-\
!	!	!	!LO:N:vis=16
.	.	.	32cc\
!	!	!	!LO:N:vis=16
.	.	.	32b-\JJJ
.	.	.	16.a\LL
!	!	!	!LO:TX:t=c
.	.	.	32cc\JJk
.	4r	.	4ccM\
=33	=33	=33	=33
1ryy	8d/L	.	8b-\L
.	8b-/	.	8dd\
.	8b-/	.	8dd\
.	8b-/J	.	8dd\J
!	!	!	!LO:N:vis=16
.	32a\LLL	.	(32cc\LLL
!	!	!	!LO:N:vis=16
.	32b-\	.	32dd\
!	!	!	!LO:N:vis=16
.	32cc\	.	32ee-\
!	!	!	!LO:N:vis=16
.	32b-\JJJ	.	32dd\JJJ)
.	16.a\LL	.	16.cc\LL
.	32cc\JJk	.	32ee-\JJk
.	4ccM\	.	4ee-M\
!	!	!	!LO:PB:g=original
=34	=34	=34	=34
1ryy	8b-\L	.	8dd\L
.	8ee-\J	.	8gg\J
.	4ee-\	.	4gg\
.	8ee-\L	.	8gg\L
.	16dd\L	.	(16ff\L
.	16cc\JJ	.	16ee-\JJ)
.	8qqdd/	.	.
.	(16cc\LL	.	(16ee-\LL
.	16b-\)	.	16dd\)
.	(16b-\	.	16dd\
.	16a\JJ)	.	16cc\JJ
!	!LO:LB:g=original	!	!
=35	=35	=35	=35
!	!	!	!LO:SIC:v:s=8dd\L
1ryy	8b-/L	.	8cc\L
.	8e-/J	.	8g\J
.	4e-/	.	4g/
.	8e-/L	.	8g/L
.	16d/L	.	16f/L
.	16c/JJ	.	16e-/JJ
.	16c/LL	.	(16e-/LL
.	16B-/	.	16d/)
.	16B-/	.	(16d/
.	16A/JJ	.	16c/JJ)
=36	=36	=36	=36
!	!	!	!LO:TX:t=P:problem:mixed beam
1ryy	4B-/	.	16d|/LL
.	.	.	(16b-\
.	.	.	16dd\
.	.	.	16b-\JJ)
.	4f/	.	16a|\LL
.	.	.	(16a\
.	.	.	16cc\
.	.	.	16a\JJ)
.	16d|/LL	.	4b-\
.	(16b-/	.	.
.	16dd/	.	.
.	16b-/JJ)	.	.
.	16a|\LL	.	4f/
.	(16a\	.	.
.	16cc\	.	.
.	16a\JJ)	.	.
=37	=37	=37	=37
!	!	!	!LO:TX:t=P:problem:mixed beam
1ryy	8b-/L	.	8d'/L
.	(8g/	.	8b-'\
.	(8f/)	.	8b-'\
.	8e-/J)	.	8b-'\J
.	8d/L	.	2b-\
.	8c/	.	.
.	8d/	.	.
.	8en/J	.	.
=38	=38	=38	=38
1ryy	1f;	.	4b-\
.	.	.	32b-\LLL
.	.	.	32cc\
.	.	.	32b-\
.	.	.	32cc\JJJ
.	.	.	8ryy
.	.	.	2cc;\
=39	=39	=39	=39
1ryy	2B-/	.	2b-\
.	2r	.	2r
==;	==;	==	==;
*-	*-	*-	*-
!!!system-decoration: [(s1,s2,s3)]
!!!RDF**kern: | = vertical stroke
!!!ENC: Katarzyna Serwa
!!!END: 2021-10-28
!!!ENC: Kamil Watkowski
!!!END: 2021-03-11
